src/assets/outline/Candle2.svg

<?xml version="1.0" encoding="UTF-8"?>
<svg width="24" height="24" viewBox="0 0 24 24" xmlns="http://www.w3.org/2000/svg">
 <path d="m22 18.25h-7c-0.41 0-0.75-0.34-0.75-0.75s0.34-0.75 0.75-0.75h7c0.41 0 0.75 0.34 0.75 0.75s-0.34 0.75-0.75 0.75z"/>
 <path d="m5 18.25h-3c-0.41 0-0.75-0.34-0.75-0.75s0.34-0.75 0.75-0.75h3c0.41 0 0.75 0.34 0.75 0.75s-0.34 0.75-0.75 0.75z"/>
 <path d="m22 7.25h-3c-0.41 0-0.75-0.34-0.75-0.75s0.34-0.75 0.75-0.75h3c0.41 0 0.75 0.34 0.75 0.75s-0.34 0.75-0.75 0.75z"/>
 <path d="m9 7.25h-7c-0.41 0-0.75-0.34-0.75-0.75s0.34-0.75 0.75-0.75h7c0.41 0 0.75 0.34 0.75 0.75s-0.34 0.75-0.75 0.75z"/>
 <path d="m13 21.25h-6c-1.72 0-2.75-1.03-2.75-2.75v-2c0-1.72 1.03-2.75 2.75-2.75h6c1.72 0 2.75 1.03 2.75 2.75v2c0 1.72-1.03 2.75-2.75 2.75zm-6-6c-0.89 0-1.25 0.36-1.25 1.25v2c0 0.89 0.36 1.25 1.25 1.25h6c0.89 0 1.25-0.36 1.25-1.25v-2c0-0.89-0.36-1.25-1.25-1.25h-6z"/>
 <path d="m17 10.25h-6c-1.72 0-2.75-1.03-2.75-2.75v-2c0-1.72 1.03-2.75 2.75-2.75h6c1.72 0 2.75 1.03 2.75 2.75v2c0 1.72-1.03 2.75-2.75 2.75zm-6-6c-0.89 0-1.25 0.36-1.25 1.25v2c0 0.89 0.36 1.25 1.25 1.25h6c0.89 0 1.25-0.36 1.25-1.25v-2c0-0.89-0.36-1.25-1.25-1.25h-6z"/>
</svg>

<svg width="24" height="24" viewBox="0 0 24 24"  xmlns="http://www.w3.org/2000/svg">
<path d="M22 18.25H15C14.59 18.25 14.25 17.91 14.25 17.5C14.25 17.09 14.59 16.75 15 16.75H22C22.41 16.75 22.75 17.09 22.75 17.5C22.75 17.91 22.41 18.25 22 18.25Z" />
<path d="M5 18.25H2C1.59 18.25 1.25 17.91 1.25 17.5C1.25 17.09 1.59 16.75 2 16.75H5C5.41 16.75 5.75 17.09 5.75 17.5C5.75 17.91 5.41 18.25 5 18.25Z" />
<path d="M22 7.25H19C18.59 7.25 18.25 6.91 18.25 6.5C18.25 6.09 18.59 5.75 19 5.75H22C22.41 5.75 22.75 6.09 22.75 6.5C22.75 6.91 22.41 7.25 22 7.25Z" />
<path d="M9 7.25H2C1.59 7.25 1.25 6.91 1.25 6.5C1.25 6.09 1.59 5.75 2 5.75H9C9.41 5.75 9.75 6.09 9.75 6.5C9.75 6.91 9.41 7.25 9 7.25Z" />
<path d="M13 21.25H7C5.28 21.25 4.25 20.22 4.25 18.5V16.5C4.25 14.78 5.28 13.75 7 13.75H13C14.72 13.75 15.75 14.78 15.75 16.5V18.5C15.75 20.22 14.72 21.25 13 21.25ZM7 15.25C6.11 15.25 5.75 15.61 5.75 16.5V18.5C5.75 19.39 6.11 19.75 7 19.75H13C13.89 19.75 14.25 19.39 14.25 18.5V16.5C14.25 15.61 13.89 15.25 13 15.25H7Z" />
<path d="M17 10.25H11C9.28 10.25 8.25 9.22 8.25 7.5V5.5C8.25 3.78 9.28 2.75 11 2.75H17C18.72 2.75 19.75 3.78 19.75 5.5V7.5C19.75 9.22 18.72 10.25 17 10.25ZM11 4.25C10.11 4.25 9.75 4.61 9.75 5.5V7.5C9.75 8.39 10.11 8.75 11 8.75H17C17.89 8.75 18.25 8.39 18.25 7.5V5.5C18.25 4.61 17.89 4.25 17 4.25H11Z" />
</svg>
